!!!COA: des Prez, Josquin
!!!CDT: ~1450-1521/08/27
!!!OTL: Qui regis Israel
!!!AGN: Motet
!!!SCT: NJE 18.9
!!!SCA: New Josquin Edition 18.9
!!!voices: 5
**kern	**kern	**kern	**kern	**kern
*part5	*part4	*part3	*part2	*part1
*staff5	*staff4	*staff3	*staff2	*staff1
*Ivox	*Ivox	*Ivox	*Ivox	*Ivox
*I"Bassus	*I"Tenor	*I"Altus	*I"Secundus Discantus	*I"Primus Discantus
*I'B	*I'T	*I'A	*I'D2	*I'D1
*clefF4	*clefGv2	*clefGv2	*clefG2	*clefG2
*k[]	*k[]	*k[]	*k[]	*k[]
*M2/1	*M2/1	*M2/1	*M2/1	*M2/1
*met(C|)	*met(C|)	*met(C|)	*met(C|)	*met(C|)
=	=	=	=	=
0r	0A	0r	0r	0r
=3	=3	=3	=3	=3
0r	1.A	0r	0r	0r
.	4G	.	.	.
.	4F	.	.	.
=4	=4	=4	=4	=4
1r	1G	0r	0r	0r
[1AA	1A	.	.	.
=5	=5	=5	=5	=5
2AA]	0E	0A	0r	0r
2BB	.	.	.	.
1C	.	.	.	.
=6	=6	=6	=6	=6
0D	0F	1.A	0r	0r
.	.	4G	.	.
.	.	4F	.	.
=7	=7	=7	=7	=7
2C	0E	1G	0r	1r
2BB	.	.	.	.
[1AA	.	1A	.	1a
=8	=8	=8	=8	=8
1AA]	1.c	1E	0r	1.a
1r	.	1F	.	.
.	4B	.	.	4g
.	4A	.	.	4f
=9	=9	=9	=9	=9
1r	1B	1E	1r	1g
2.AA	2A	2r	1a	1c
.	[2c	2E	.	.
4GG	.	.	.	.
=10	=10	=10	=10	=10
2FF	4c]	4F	1.a	1.f
.	4B	4G	.	.
1F	4A	4A	.	.
.	4G	4B	.	.
.	2F	2c	.	.
4E	2A	2d	4g	2f
4D	.	.	4f	.
=11	=11	=11	=11	=11
1E	2G	1B	1g	2e
.	1E	.	.	2.e
2AA	.	1A	1a	.
.	.	.	.	4d
[2AA	[2A	.	.	4c
.	.	.	.	4B
=12	=12	=12	=12	=12
2AA]	2A]	0r	1.e	2.c
2.C	4G	.	.	.
.	4F	.	.	4B
.	2G	.	.	4c
4BB	.	.	.	4d
2AA	[2A	.	2e	[2e
=13	=13	=13	=13	=13
1D	4A]	1A	2f	2e]
.	4G	.	.	.
.	4F	.	2f	4d
.	4E	.	.	4c
1D	2F	1A	1f	1d
.	2D	.	.	.
=14	=14	=14	=14	=14
0AA;	0E;	0A;	0e;	0c;
=15	=15	=15	=15	=15
0r	0r	0r	0a	1d
.	.	.	.	2c
.	.	.	.	4d
.	.	.	.	4c
=16	=16	=16	=16	=16
0r	0r	0r	1a	4d
.	.	.	.	4e
.	.	.	.	1f
.	.	.	2.g	.
.	.	.	.	2e
.	.	.	8fL	.
.	.	.	8eJ	.
=17	=17	=17	=17	=17
0r	0r	0r	2d	2.f
.	.	.	2.f	.
.	.	.	.	4g
.	.	.	.	2a
.	.	.	4g	.
.	.	.	2f	2d
=18	=18	=18	=18	=18
0r	0r	0r	2d	2r
.	.	.	2f	2d
.	.	.	2e	2c
.	.	.	2d	[2d
=19	=19	=19	=19	=19
0r	0r	0r	2.f	4d]
.	.	.	.	4e
.	.	.	.	2f
.	.	.	4e	.
.	.	.	2c	2e
.	.	.	[2d	[2f
=20	=20	=20	=20	=20
0r	0r	0r	4d]	4f]
.	.	.	4c	4g
.	.	.	4B	2a
.	.	.	4A	.
.	.	.	2B	2g
.	.	.	2A	2a
=21	=21	=21	=21	=21
0r	0r	0r	2r	2.f
.	.	.	2a	.
.	.	.	.	8eL
.	.	.	.	8dJ
.	.	.	2g	2e
.	.	.	[2f	2d
=22	=22	=22	=22	=22
0r	0r	0r	4f]	2e
.	.	.	4e	.
.	.	.	1e	2g
.	.	.	.	2.f
.	.	.	2d	.
.	.	.	.	8eL
.	.	.	.	8dJ
=23	=23	=23	=23	=23
0r	1.A	0r	0e	0c
.	2G	.	.	.
=24	=24	=24	=24	=24
0r	2.F	1.A	0r	0r
.	8EL	.	.	.
.	8DJ	.	.	.
.	4C	.	.	.
.	4D	.	.	.
.	[2E	2G	.	.
=25	=25	=25	=25	=25
0r	4E]	1F	0r	0r
.	4D	.	.	.
.	1D	.	.	.
.	.	1E	.	.
.	2C	.	.	.
=26	=26	=26	=26	=26
0r	4D	2r	0r	0r
.	4E	.	.	.
.	4F	2A	.	.
.	4D	.	.	.
.	4E	2G	.	.
.	4F	.	.	.
.	[2G	2E	.	.
=27	=27	=27	=27	=27
0r	4G]	1G	0r	0r
.	4F	.	.	.
.	1E	.	.	.
.	.	1F	.	.
.	2D	.	.	.
=28	=28	=28	=28	=28
0r	1E	2r	0r	0r
.	.	2.E	.	.
.	2r	.	.	.
.	.	4F	.	.
.	[2E	4G	.	.
.	.	4A	.	.
=29	=29	=29	=29	=29
0r	4E]	2B	0r	0r
.	4D	.	.	.
.	4G	2E	.	.
.	4A	.	.	.
.	2B	2r	.	.
.	2E	[2G	.	.
=30	=30	=30	=30	=30
0r	2r	4G]	0r	0r
.	.	4A	.	.
.	2.G	4B	.	.
.	.	4c	.	.
.	.	2d	.	.
.	4A	.	.	.
.	4B	2G	.	.
.	4c	.	.	.
=31	=31	=31	=31	=31
0r	2d	2r	0r	0r
.	2G	2E	.	.
.	2r	2.G	.	.
.	2E	.	.	.
.	.	4A	.	.
=32	=32	=32	=32	=32
0r	2.G	2B	0r	0r
.	.	2E	.	.
.	4A	.	.	.
.	2B	2.G	.	.
.	2E	.	.	.
.	.	4A	.	.
=33	=33	=33	=33	=33
0r	2.G	2B	0r	0r
.	.	2.E	.	.
.	4A	.	.	.
.	2B	.	.	.
.	.	4F	.	.
.	[2E	4G	.	.
.	.	4A	.	.
=34	=34	=34	=34	=34
0r	4E]	1B	0r	0r
.	4F	.	.	.
.	4G	.	.	.
.	4A	.	.	.
.	4B	1G	.	.
.	4c	.	.	.
.	[2B	.	.	.
=35	=35	=35	=35	=35
0r	4B]	1A	0r	0r
.	4A	.	.	.
.	1A	.	.	.
.	.	1B	.	.
.	2G#Xi	.	.	.
=36	=36	=36	=36	=36
0r	0A	2A	[0e	0r
.	.	1c	.	.
.	.	4B	.	.
.	.	4A	.	.
=37	=37	=37	=37	=37
0r	2r	2G	1e]	0r
.	1c	2.A	.	.
.	.	.	[1e	.
.	.	4G	.	.
.	4B	2A	.	.
.	4A	.	.	.
=38	=38	=38	=38	=38
0r	2G	2E	1e]	0r
.	2.A	1c	.	.
.	.	.	1e	.
.	4G	.	.	.
.	2A	4B	.	.
.	.	4A	.	.
=39	=39	=39	=39	=39
0r	2E	2B	0e	0r
.	1c	2A	.	.
.	.	2r	.	.
.	4B	2A	.	.
.	4A	.	.	.
=40	=40	=40	=40	=40
0r	2B	2G	1e	0r
.	2A	1c	.	.
.	2r	.	1r	.
.	2A	2c	.	.
=41	=41	=41	=41	=41
0r	2G	2B	2r	0r
.	1c	2A	2.e	.
.	.	2r	.	.
.	.	.	4d	.
.	4B	[2A	4e	.
.	4A	.	4f	.
=42	=42	=42	=42	=42
0r	1c	2A]	2e	0r
.	.	2A	2.f	.
.	1d	1D	.	.
.	.	.	4g	.
.	.	.	[2a	.
=43	=43	=43	=43	=43
0r	0B	0E	2a]	0r
.	.	.	4g#Xi	.
.	.	.	4f#Xi	.
.	.	.	1g#Xi	.
=44	=44	=44	=44	=44
1AA	0A	1r	[0a	1e
1AA	.	1E	.	1c
=45	=45	=45	=45	=45
1.D	0A	1.F	0a]	2.d
.	.	.	.	4e
.	.	.	.	1f
4C	.	4E	.	.
4BB	.	4D	.	.
=46	=46	=46	=46	=46
1C	1A	2.E	1r	2r
.	.	.	.	2e
.	.	8DL	.	.
.	.	8EJ	.	.
1D	1A	2F	2r	2d
.	.	2D	2d	2f
=47	=47	=47	=47	=47
2AA	1A	2r	2c	2e
2D	.	2D	2d	2f
2C	2A	2E	2r	2r
[2D	2A	2F	2d	[2f
=48	=48	=48	=48	=48
4D]	1A	1D	2d	2f]
4C	.	.	.	.
4BB	.	.	2d	4e
4AA	.	.	.	4d
1GG	1B	1D	2d	1g
.	.	.	2d	.
=49	=49	=49	=49	=49
1AA	2.c	2r	2r	1e
.	.	4C	1e	.
.	4B	4D	.	.
1C	4A	4E	.	1r
.	4G	4F	.	.
.	[2A	[2E	4d	.
.	.	.	4c	.
=50	=50	=50	=50	=50
0BB	2A]	2E]	0d	0r
.	4G#Xi	4D	.	.
.	4F#Xi	4C	.	.
.	1G#Xi	1D	.	.
=51	=51	=51	=51	=51
1AA	0A	1E	0r	1a
2r	.	1A	.	1a
[2AA	.	.	.	.
=52	=52	=52	=52	=52
4AA]	0r	1c	0r	1a
4BB	.	.	.	.
4C	.	.	.	.
4D	.	.	.	.
2.E	.	1B	.	[1g
4D	.	.	.	.
=53	=53	=53	=53	=53
2E	0r	2B	0r	2g]
2F	.	2.A	.	2a
2.D	.	.	.	2.f
.	.	4G	.	.
.	.	4A	.	.
4C	.	4B	.	8eL
.	.	.	.	8dJ
=54	=54	=54	=54	=54
1AA	0r	2.c	0r	2.e
.	.	8BL	.	4d
.	.	8cJ	.	.
2r	.	2d	.	2f
2AA	.	[2c	.	[2e
=55	=55	=55	=55	=55
2C	0r	4c]	0r	2e]
.	.	4B	.	.
2D	.	2A	.	4d
.	.	.	.	4c
2E	.	2G	.	2B
[2F	.	2A	.	2A
=56	=56	=56	=56	=56
4F]	0r	2r	0r	0f
4E	.	.	.	.
4D	.	2.A	.	.
4C	.	.	.	.
1D	.	.	.	.
.	.	4G	.	.
.	.	2F	.	.
=57	=57	=57	=57	=57
2C	0r	2G	0r	1e
2.AA	.	2A	.	.
.	.	1c	.	1a
4BB	.	.	.	.
4C	.	.	.	.
4D	.	.	.	.
=58	=58	=58	=58	=58
4E	0r	1B	0r	1g
4F	.	.	.	.
1E	.	.	.	.
.	.	2r	.	[1f
4D	.	[2A	.	.
4C	.	.	.	.
=59	=59	=59	=59	=59
2D	0r	2A]	0r	2f]
2E	.	1G	.	2e
1C	.	.	.	[1e
.	.	4F	.	.
.	.	4E	.	.
=60	=60	=60	=60	=60
1D	0r	2.F	0r	2e]
.	.	.	.	4d
.	.	4E	.	4c
1D	.	1F	.	1d
=61	=61	=61	=61	=61
[0AA	1r	0E	1.a	1c
.	[1A	.	.	[1e
.	.	.	2a	.
=62	=62	=62	=62	=62
1AA]	2A]	1r	1a	2e]
.	2A	.	.	2e
[1FF	1A	[1A	[1a	2A
.	.	.	.	[2f
=63	=63	=63	=63	=63
0FF]	1c	2A]	2a]	4f]
.	.	.	.	4g
.	.	2A	2f	1a
.	1c	1A	2.f	.
.	.	.	.	4g
.	.	.	8eL	4f
.	.	.	8dJ	.
=64	=64	=64	=64	=64
[0C	2c	1G	1.g	2.e
.	1c	.	.	.
.	.	.	.	4d
.	.	[1G	.	4e
.	.	.	.	4f
.	4B	.	2e	[2g
.	4A	.	.	.
=65	=65	=65	=65	=65
1C]	1G	2G]	1e	4g]
.	.	.	.	4f
.	.	2E	.	4e
.	.	.	.	4d
[1AA	1A	1E	2r	1c
.	.	.	[2a	.
=66	=66	=66	=66	=66
0AA]	0E	1A	2a]	2r
.	.	.	2e	2.c
.	.	1c	1a	.
.	.	.	.	4d
.	.	.	.	4e
.	.	.	.	4f
=67	=67	=67	=67	=67
[0E	2r	1B	2.g	2.e
.	2G	.	.	.
.	.	.	4f	4f
.	2G	2r	1e	1g
.	2G	2G	.	.
=68	=68	=68	=68	=68
1E]	2r	2G	2r	2e
.	2G	2G	2e	1g
1C	2.c	2r	2e	.
.	.	2G	2e	4f
.	4B	.	.	4e
=69	=69	=69	=69	=69
1D	2A	2F	2f	2d
.	2d	2F	1a	2f
1E	2c	1G	.	1e
.	2B	.	2g	.
=70	=70	=70	=70	=70
0F	0A	1.D	2a	2r
.	.	.	1f	2a
.	.	.	.	2a
.	.	2D	4e	2a
.	.	.	4d	.
=71	=71	=71	=71	=71
1.F	0r	[0A	0c	2a
.	.	.	.	1a
4E	.	.	.	4g
4D	.	.	.	4f
=72	=72	=72	=72	=72
2C	0r	0A]	0r	2e
1D	.	.	.	2d
.	.	.	.	1e
2C#Xi	.	.	.	.
=73	=73	=73	=73	=73
1D	1A	1r	1a	1d
1AA	2A	1c	2a	1e
.	2A	.	2a	.
=74	=74	=74	=74	=74
2AA	2A	2c	2a	2e
2AA	1A	2c	1a	2e
2AA	.	2c	.	2.e
[2AA	2A	[2c	4g	.
.	.	.	4f	4d
=75	=75	=75	=75	=75
2AA]	1A	4c]	2e	2c
.	.	4B	.	.
2AA	.	2.A	2d	1d
1AA	2r	.	1e	.
.	.	4G	.	.
.	2A	4F	.	2c#Xi
.	.	4E	.	.
=76	=76	=76	=76	=76
1BB-X	2F	2D	1r	1d
.	1B-X	1F	.	.
1BB-Xi	.	.	1d	1r
.	4A	2E	.	.
.	4G	.	.	.
=77	=77	=77	=77	=77
1BB-Xi	2.F	2.D	1d	0r
.	4G	8CL	.	.
.	.	8DJ	.	.
1AA	2A	4E	1c	.
.	.	4C	.	.
.	2F	[2F	.	.
=78	=78	=78	=78	=78
0GG	0G	2F]	1B	1r
.	.	4E	.	.
.	.	4D	.	.
.	.	1E	1B	1g
=79	=79	=79	=79	=79
[0FF	1C	1F	1A	2.a
.	.	.	.	4g
.	1c	2r	2r	2a
.	.	2F	2a	[2f
=80	=80	=80	=80	=80
1FF]	1.c	2F	2a	2f]
.	.	2F	2a	4e
.	.	.	.	4d
1C	.	1G	1g	1e
.	2c	.	.	.
=81	=81	=81	=81	=81
1.D	2A	1r	2f	2r
.	1A	.	2d	1f
.	.	2r	2d	.
2C	2A	2E	2e	4e
.	.	.	.	4d
=82	=82	=82	=82	=82
2AA	2A	2E	2c	2e
2D	2A	2F	2d	2d
2C	1A	2E	2e	2r
2D	.	2F	2d	2d
=83	=83	=83	=83	=83
2r	0A	2r	1r	2e
2D	.	2D	.	2f
2C	.	2E	2r	2e
2D	.	2F	2d	2d
=84	=84	=84	=84	=84
2AA	1A	2E	2e	2c
2.D	.	2D	1f	2d
.	1A	2r	.	1d
4C	.	.	.	.
4BB	.	2D	4e	.
4AA	.	.	4d	.
=85	=85	=85	=85	=85
1GG	1B	2D	1g	1r
.	.	2D	.	.
[1AA	[1c	[1C	1e	2r
.	.	.	.	4e
.	.	.	.	4d
=86	=86	=86	=86	=86
2AA]	2c]	2C]	0r	4e
.	.	.	.	4f
2BB	4B	2D	.	1e
.	4A	.	.	.
1C	2G	2E	.	.
.	[2A	[2E	.	4d
.	.	.	.	4c
=87	=87	=87	=87	=87
0BB	2A]	2E]	0r	2d
.	4G	4D	.	2.g
.	4F	4C	.	.
.	1G	1D	.	.
.	.	.	.	4f
.	.	.	.	4e
.	.	.	.	4d
=88	=88	=88	=88	=88
1AA	1A	1E	0a	1c
1r	1D	1r	.	[1f
=89	=89	=89	=89	=89
0r	1D	1F	1a	2f]
.	.	.	.	4e
.	.	.	.	4d
.	1A	2F	1a	2c
.	.	[2A	.	[2d
=90	=90	=90	=90	=90
0r	1E	2A]	1g	2d]
.	.	4G	.	4c#Xi
.	.	4F	.	4B
.	1E	1G	1g	1c#Xi
=91	=91	=91	=91	=91
2r	1D	1A	1f	4d
.	.	.	.	4e
2D	.	.	.	4f
.	.	.	.	4d
2C	1G	2.c	[1e	4e
.	.	.	.	4f
2C	.	.	.	[2g
.	.	4B	.	.
=92	=92	=92	=92	=92
2D	1F	4A	2e]	2g]
.	.	4G	.	.
2D	.	1A	4d	4f
.	.	.	4c	4e
2BB	1D	.	1d	2f
2BB	.	2G	.	2g
=93	=93	=93	=93	=93
0AA	[0E	2A	1c	2r
.	.	2c	.	2a
.	.	2c	[1e	2e
.	.	2c	.	[2a
=94	=94	=94	=94	=94
0r	0E]	2.B	2e]	2a]
.	.	.	2e	4g#Xi
.	.	4A	.	4f#Xi
.	.	1B	1e	1g#Xi
=95	=95	=95	=95	=95
0AA	1r	1A	1c	0a
.	1E	2r	2r	.
.	.	2A	2c	.
=96	=96	=96	=96	=96
1D	1F	2A	2d	1r
.	.	2B	1f	.
1C	1G	2c	.	1g
.	.	2c	2e	.
=97	=97	=97	=97	=97
1FF	2.F	0c	1f	1a
.	8EL	.	.	.
.	8FJ	.	.	.
[1C	1G	.	[1e	1g
=98	=98	=98	=98	=98
2C]	1c	1c	2e]	2c
2D	.	.	2f	2.f
1E	1G	1B	1g	.
.	.	.	.	4e
.	.	.	.	[2e
=99	=99	=99	=99	=99
0F	1.A	0r	0a	2e]
.	.	.	.	4d
.	.	.	.	4c
.	.	.	.	1d
.	4G	.	.	.
.	4A	.	.	.
=100	=100	=100	=100	=100
[0E	2B	2r	0g	[0e
.	2.G	2B	.	.
.	.	2.G	.	.
.	4A	.	.	.
.	2B	.	.	.
.	.	4A	.	.
=101	=101	=101	=101	=101
0E_	4E	2B	2.g	0e]
.	4F	.	.	.
.	4G	2E	.	.
.	4A	.	4f	.
.	4B	1r	2g	.
.	4G	.	.	.
.	[2c	.	[2a	.
=102	=102	=102	=102	=102
0E]	2c]	1r	2a]	1r
.	4B	.	4g#Xi	.
.	4A	.	4f#Xi	.
.	1B	1E	1g#Xi	1e
=103	=103	=103	=103	=103
1AA	2r	1E	0a	2.c
.	2.A	.	.	.
.	.	.	.	8BL
.	.	.	.	8cJ
1D	.	1F	.	1d
.	4G	.	.	.
.	4A	.	.	.
.	4B	.	.	.
=104	=104	=104	=104	=104
2.AA	2.c	0E	1r	2r
.	.	.	.	2.c
4BB	8B/L	.	.	.
.	8A/J	.	.	.
2C	2G	.	1e	.
.	.	.	.	4d
2AA	[2A	.	.	[2e
=105	=105	=105	=105	=105
0D	4A]	1r	1.f	2e]
.	4G	.	.	.
.	4F	.	.	4d
.	4E	.	.	4c
.	2F	[1A	.	2.d
.	2D	.	4e	.
.	.	.	4d	8cL
.	.	.	.	8BJ
=106	=106	=106	=106	=106
2AA	2r	2A]	2e	2c
2D	2F	2A	2d	2d
2C	2E	1A	2r	2r
[2D	2F	.	2d	2f
=107	=107	=107	=107	=107
4D]	1D	1A	2d	2f
4C	.	.	.	.
4BB	.	.	2d	2d
4AA	.	.	.	.
1GG	1D	1B	2d	1g
.	.	.	2d	.
=108	=108	=108	=108	=108
1AA	2r	2.c	2r	1e
.	4C	.	1e	.
.	4D	4B	.	.
1C	4E	4A	.	1r
.	4F	4G	.	.
.	[2E	[2A	4d	.
.	.	.	4c	.
=109	=109	=109	=109	=109
0BB	2E]	2A]	1d	0r
.	4D	4G#Xi	.	.
.	4C	4F#Xi	.	.
.	1D	1G#	1d	.
=110	=110	=110	=110	=110
[0AAl	[0El	[0Al	[0cl	0a
=111	=111	=111	=111	=111
0AA]	0E]	0A]	0c]	0al
==	==	==	==	==
*-	*-	*-	*-	*-
!!!RDF**kern: l=long note in original notation
!!!system-decoration: s1,s2,s3,s4,s5
!!!RDF**kern: i = editorial accidental
!!!ENC: Chris Gage 06-25-2014
!!!END: 2020/10/21/
!!!EED: Jesse Rodin
!!!EEV: 2020/10/23/
!!attribution-level@Jos: 4a (the rest [double question mark])
!!!ONB: Translated from MusicXML and edited on 2020/10/23/ by Craig Sapp
!!muse2ps: C^@{COA}??\n@{SCT}^i2I150v85,85,85,85,150c120
